carriers/postBe.svg

<svg width="128" height="64" viewBox="0 0 128 64" fill="none" xmlns="http://www.w3.org/2000/svg">
<rect width="128" height="64" rx="6" fill="white"/>
<path d="M84.4636 7L69.1124 11.6261C63.1362 24.6737 49.1917 37.9762 38.0087 41.3656C26.8257 44.7549 22.5206 36.933 28.5676 23.8995L22.582 25.7028C19.8157 31.7404 18.4043 37.0746 18.4043 41.46V41.847C18.4657 51.4864 25.216 56.0087 36.9749 52.3833C54.1341 47.2285 75.4001 26.864 84.4636 7Z" fill="url(#paint0_linear_5_12460)"/>
<path d="M51.9436 16.8424L31.2582 23.0499C28.171 29.7483 30.3566 33.7325 36.0779 32.0189C41.7992 30.3054 48.9225 23.4606 51.9436 16.8424Z" fill="url(#paint1_linear_5_12460)"/>
<path d="M78.2325 53.5257C77.7152 53.5056 77.2004 53.4424 76.6936 53.3369V57H74.0548V44.9815C75.2927 44.5426 76.5982 44.3253 77.9115 44.3395C81.3197 44.3395 83.1041 46.0719 83.1041 48.9656C83.1041 51.6658 81.433 53.5257 78.2183 53.5257M77.8973 46.0719C77.4824 46.053 77.068 46.1188 76.6794 46.2655V51.6658C77.0762 51.778 77.4852 51.8414 77.8973 51.8546C79.5684 51.8546 80.404 50.6981 80.404 48.9656C80.404 47.2332 79.5684 46.0719 77.8973 46.0719ZM89.2266 53.6579C86.2055 53.6579 84.4731 51.6658 84.4731 48.9656C84.4731 46.2655 86.1441 44.3395 89.2266 44.3395C92.3092 44.3395 93.985 46.3316 93.985 48.9656C93.985 51.5997 92.2478 53.6579 89.2266 53.6579ZM89.2266 46.0719C87.8105 46.0719 87.1071 47.1671 87.1071 48.9656C87.1071 50.7642 87.8152 51.798 89.2266 51.798C90.6381 51.798 91.3509 50.7689 91.3509 48.9656C91.3509 47.1624 90.6428 46.0719 89.2266 46.0719ZM98.3515 53.6579C97.1877 53.6489 96.035 53.4315 94.9479 53.0159L95.7835 51.2787C96.5551 51.6178 97.3822 51.813 98.224 51.8546C99.1681 51.8546 99.8337 51.4722 99.8337 50.9105C99.8337 50.3488 99.1256 49.9664 98.224 49.6926C96.8739 49.3055 95.2029 48.7485 95.2029 46.9924C95.2029 45.4488 96.619 44.3584 99.0595 44.3584C100.166 44.3245 101.266 44.5441 102.274 45.0004L101.439 46.544C100.795 46.2218 100.09 46.04 99.3711 46.0106C98.4742 46.0106 97.8936 46.3929 97.8936 46.9075C97.8936 47.6156 98.6016 47.8516 99.4986 48.1301C100.849 48.6022 102.586 49.027 102.586 50.8302C102.586 52.6335 101.108 53.6626 98.3373 53.6626M107.915 53.5965C105.857 53.5965 104.96 52.6524 104.96 50.7642V46.1805H103.62V44.5283H104.97V42.5363L107.604 41.8943V44.5283H109.596V46.1805H107.604V50.5706C107.604 51.2787 108.118 51.5147 108.822 51.5147C109.085 51.5104 109.345 51.4674 109.596 51.3873V53.2755C109.068 53.4991 108.498 53.6085 107.925 53.5965M72.3838 48.9704C72.3838 51.8593 70.5239 53.5965 67.1912 53.5965C65.8775 53.6154 64.5711 53.398 63.3345 52.9545V40.8699H65.9685V44.5283C66.4485 44.3902 66.9468 44.3266 67.4461 44.3395C70.6608 44.3395 72.3932 46.1994 72.3932 48.9656M69.6978 48.9656C69.6978 47.2946 68.8622 46.0719 67.1912 46.0719C66.7747 46.0534 66.3589 46.1192 65.9685 46.2655V51.6658C66.3603 51.806 66.7753 51.8701 67.1912 51.8546C68.7961 51.7932 69.6978 50.7642 69.6978 48.9656Z" fill="#575756"/>
<defs>
<linearGradient id="paint0_linear_5_12460" x1="20.0609" y1="46.6486" x2="82.8671" y2="2.67206" gradientUnits="userSpaceOnUse">
<stop stop-color="#A21007"/>
<stop offset="0.24" stop-color="#B90D11"/>
<stop offset="0.56" stop-color="#D0091B"/>
<stop offset="0.75" stop-color="#D9081F"/>
<stop offset="1" stop-color="#D9081F"/>
</linearGradient>
<linearGradient id="paint1_linear_5_12460" x1="25.9917" y1="29.5576" x2="47.0041" y2="14.8495" gradientUnits="userSpaceOnUse">
<stop stop-color="#A21007"/>
<stop offset="0.24" stop-color="#B90D11"/>
<stop offset="0.56" stop-color="#D0091B"/>
<stop offset="0.75" stop-color="#D9081F"/>
<stop offset="1" stop-color="#D9081F"/>
</linearGradient>
</defs>
</svg>

<svg xmlns="http://www.w3.org/2000/svg" width="128" height="64" fill="none"><rect width="128" height="64" fill="#fff" rx="6"/><path fill="url(#a)" d="m84.464 7-15.352 4.626c-5.976 13.048-19.92 26.35-31.103 29.74-11.183 3.389-15.488-4.433-9.441-17.466l-5.986 1.803c-2.766 6.037-4.178 11.372-4.178 15.757v.387c.062 9.64 6.812 14.162 18.57 10.536C54.135 47.228 75.4 26.864 84.465 7Z"/><path fill="url(#b)" d="M51.944 16.842 31.258 23.05c-3.087 6.698-.901 10.683 4.82 8.969 5.721-1.714 12.844-8.558 15.866-15.177Z"/><path fill="#575756" d="M78.233 53.526a9.329 9.329 0 0 1-1.54-.19V57h-2.638V44.981a11.18 11.18 0 0 1 3.856-.642c3.409 0 5.193 1.733 5.193 4.627 0 2.7-1.671 4.56-4.886 4.56m-.32-7.454a3.055 3.055 0 0 0-1.219.194v5.4c.397.112.806.175 1.218.189 1.671 0 2.507-1.157 2.507-2.89 0-1.732-.836-2.893-2.507-2.893Zm11.329 7.586c-3.022 0-4.754-1.992-4.754-4.692s1.671-4.627 4.754-4.627c3.082 0 4.758 1.993 4.758 4.627 0 2.634-1.737 4.692-4.758 4.692Zm0-7.586c-1.416 0-2.12 1.095-2.12 2.894 0 1.798.708 2.832 2.12 2.832 1.411 0 2.124-1.03 2.124-2.832 0-1.804-.708-2.894-2.124-2.894Zm9.124 7.586a9.742 9.742 0 0 1-3.403-.642l.836-1.737c.771.339 1.598.534 2.44.576.944 0 1.61-.383 1.61-.944 0-.562-.708-.945-1.61-1.218-1.35-.387-3.021-.944-3.021-2.7 0-1.544 1.416-2.635 3.856-2.635a7.257 7.257 0 0 1 3.215.642l-.835 1.544a5.087 5.087 0 0 0-2.068-.533c-.897 0-1.477.382-1.477.896 0 .709.708.945 1.605 1.223 1.35.472 3.087.897 3.087 2.7 0 1.803-1.478 2.833-4.249 2.833m9.578-.066c-2.058 0-2.955-.945-2.955-2.833V46.18h-1.34v-1.652h1.35v-1.992l2.634-.642v2.634h1.992v1.653h-1.992v4.39c0 .708.514.944 1.218.944.263-.005.523-.048.774-.128v1.889a4.069 4.069 0 0 1-1.671.32M72.384 48.97c0 2.89-1.86 4.627-5.193 4.627a10.957 10.957 0 0 1-3.857-.642V40.87h2.635v3.658c.48-.138.978-.201 1.477-.188 3.215 0 4.947 1.86 4.947 4.626m-2.695 0c0-1.671-.836-2.894-2.507-2.894a3.093 3.093 0 0 0-1.222.194v5.4c.391.14.806.204 1.222.189 1.605-.062 2.507-1.09 2.507-2.89Z"/><defs><linearGradient id="a" x1="20.061" x2="82.867" y1="46.649" y2="2.672" gradientUnits="userSpaceOnUse"><stop stop-color="#A21007"/><stop offset=".24" stop-color="#B90D11"/><stop offset=".56" stop-color="#D0091B"/><stop offset=".75" stop-color="#D9081F"/><stop offset="1" stop-color="#D9081F"/></linearGradient><linearGradient id="b" x1="25.992" x2="47.004" y1="29.558" y2="14.85" gradientUnits="userSpaceOnUse"><stop stop-color="#A21007"/><stop offset=".24" stop-color="#B90D11"/><stop offset=".56" stop-color="#D0091B"/><stop offset=".75" stop-color="#D9081F"/><stop offset="1" stop-color="#D9081F"/></linearGradient></defs></svg>
